X: 41932
T: Waking Up In Wonderful Wark
R: jig
M: 6/8
K: Gmajor
|:Bde gfe|dBA B2B|ABG AEG|DEG ABc|
Bde gfe|dBA B2B|ABG AEG|DEG ABc:|
|:Bde g2g|b2b abg|aeg dec|Bdg edc|
Bde g2g|b2b abg|aeg dec|1 Bcd Gdc:|2 B^cd AB^c||
K:D
def abc'|d'3 d'e'c'|d'3 d'e'c'|d'bc' abg|
fed abc'|d'3 d'e'c'|d'bc' abg|abc' d'2g|
fed abc'|d'3 d'e'c'|d'3 d'e'c'|d'bc' abg|
fed abc'|d'3 d'e'c'|d'bc' abg|fge d2=c||

